X:1
T:Title
%%score 1 { 2 | 3 }
L:1/8
Q:1/4=97
M:6/8
K:C
V:1 treble nm="Grand Piano, Soprano"
V:2 treble nm="Choir Pad, Evergreen Shore (Hunter)"
V:3 bass 
V:1
 GG[Gc] [Gc][Gc][Gc] | [GB][Gc][Bd] [Bd][Bd][Bd]- | [Bd]2 [Gd] [Gd][Gd][Gd] | %3
w: By~William~Batchelder~Bradbury,~1861 * * * * *|||
 [Gc][Gd][Ge]- [Ge]3- | [Ge]GG [Gc][Gc][Gc] | [Gc][GB][Gc] [Bd][Bd][Bd] | [Bd]2 [Ac] [GB][GB][GB] | %7
w: ||||
 [Ac][GB][^FA] G3- | G2 G [FA]2 [FA] | [FA][FA][FA] [Ac]3- | [Ac]2 [FA] [EG]2 [EG] | %11
w: ||||
 [Gc][Gd][Ge] [Gd]3- | [Gd][Gd][Gd] [Ge][Ge][Ge] | [Fd][Fd][Fd] [Ec]2 [Ec] | %14
w: |||
 [FA]2 [FA] [EG]2 [Ec] | [DB][CA][DB] [Ec]3- | [Ec][Gd][Gd] [Ge][Ge][Ge] | %17
w: |||
 [Fd][Fd][Fd] [Ec]2 [Ec] | [FA]2 [FA] [EG]2 [Ec] | [DB][CA][DB] [Ec]3- | [Ec]6 |] %21
w: ||||
V:2
 G,G,E EEC | DED DDD- | D2[K:bass] B, B,B,B, | CB,[K:treble]C- C3- | CG,G, EEE | CDE DDD | %6
 D2 E DDD | DDC B,3- | B,2 C C2 C | CCC C3- | C2[K:bass] F, C3 | CB,C B,3- | B,B,B,[K:treble] CCC | %13
 B,B,B, C2 C | C2 C C2 C | G,G,G, G,3- | G,B,B,[K:treble] CCC | B,B,B, C2 C | C2 C C2 C | %19
 G,G,G, G,3- | G,6 |] %21
V:3
 z2 C, C,C,E, | D,C,G, G,G,G,- | G,2 G, G,G,G, | E, .G,2 z3 | z3 C,C,C, | E,D,C, G,G,G, | %6
 G,2 C, D,D,D, | D,D,D, G,3- | G,2 E, F,2 F, | F,F,F, F,3- | F,3 C,2 C, | E,D,C, G,3- | G,G,G, z3 | %13
 G,G,G, A,2 A, | F,2 F, G,2 G, | z3 C,3- | C,G,G, z3 | G,G,G, A,2 A, | F,2 F, G,2 G, | z3 C,3- | %20
 C,6 |] %21

